X:129
T:Vals efter Carl Johan Krej
T:(SvL Småland 129)
R:Vals
B:Svenska Låtar Småland
S:Carl Johan Krej
O:Ålem, Småland
Z:Till abc Jonas Brunskog
Q:1/4=120
M:3/4
L:1/8
K:D
FA|(A2 d2) f2|((3fgf) e2 d2|(d2 c2) c2|A4 Ac|(c2 e2) g2|
{/g}f2 af ge|e2 d2 d2|d4:| |:D2|DF AF AF|DG BG BG|
Ac ec ec|Ad fd fd|DF AF AF|DG BG BG|
Ac ec ec| d4:| |:d2|ef gf ge|Ad fd fd|Ac ec ec|
Ad fd fd|ef gf gf|Ad fd fd|Ac ec ec|d4:|

